X:1
T:Johannes Galliculus ~1490 - ~1550
T:Apparuit benignitas
%%score [ 1 2 3 4 ]
L:1/8
Q:1/4=240
M:4/4
K:C
V:1 treble nm="Discantus"
V:2 treble nm="Altus"
V:3 treble nm="Tenor"
V:4 treble nm="Bassus"
V:1
"^;""^C" x2"^ã" | G8 c12 | c4 c4 c4 c4 | c4 A4 c4 B4 | A4 B4 B4 x4 |[M:4/2] G12 G4 | c8 c8 | %7
w: |Ap- pa-|ru- it be- ni-|gni- tas & hu-|* ma- ni-|tas Sal-|va- to-|
w: |||||||
 A4 c4 B4 A4 | B8 G8 x4 | A8 G8 x12 | z16 | z16 | z16 | z16 | z16 | z16 | z8 z4 G4 | A4 G4 c8 | %18
w: ris * De- *|i no-|* stri|||||||Sed|se- cun- dum|
w: |||||||||||
 z4 G4 A2 G2 c8 | B4 c8 z4 | c4 c4 c4 x8 | A4 c4 B4 A6 | B2 c8 B4 c16 | z4 c4 c4 c4 | %24
w: ||mi- se- ri-|cor- di- am su-|* * * am,|sal- vos nos|
w: sed se- * cun-|* dum.|||||
 A4 G8 ^F4 x4 | G6"^(  )" F2 D8 x4 | z16 | z16 | z16 | z16 | z16 | z16 | z16 | z16 x4 | %34
w: * fe- *|* * cit,|||||||||
w: ||||||||||
 z4 G4 A4 G4 x12 | c8 z4 A4 | A4 A4 B4 A4 | d8"^S" B8 | z4 B4 c4 B4 | e8 c8 | z4 c4 c4 c4 | %41
w: quem ef- fun-|dit in|nos o- * pu-|len- ter|per Je- sum|Chri- stum|sal- va- to-|
w: |||||||
 A4 d6 c2 B2 A2 | G4 c8 B4 | c16 x2 | z8 z4 A4 x6 | B4 G4 A4 G2 F2 x4 | E6 D2 E4 e6 x2 | %47
w: rem no * * *||strum,|ut|ju- sti- fi- ca *|ti * * gra-|
w: ||||||
 d2 c8 B2 A2 G4 | c8 B4 c8 | e8 d16 | c8 e8 | d8 z8 x8 | z8 z4 G4 | A4 c4 B8 | z4 G4 A4 c6 x2 | %55
w: ti- a * * i-|psi- us hæ-|re- des|* si-|mus,|se-|cun- dum spem|vi- tæ æ|
w: ||||||||
 B2 G4 A6 G2 A4 x10 | G8 ^F4 G16 | B16 x12 | B8 c8 | B16 | G8 A4 F4 | G8 F8 | z4 D4 E8 | %63
w: * ter * * *|* * næ|in|Chri- sto|Je-|su * *||Do- mi-|
w: ||||||||
 F4 G8 ^F4 x4 | G16 | G8 A16 x4 | G8 A16 | x16 x8 |] x16 |] %69
w: no no- *|stro|Do- mi|no- no-|||
w: ||||||
V:2
"^;""^C" x2"^ã" | z8 C8 x4 | F12 F4 | F4 F4 F4 F4 | D4 F4 E4 D4 |[M:4/2] E4 E4 C8 | z4 C4 F8 | %7
w: |Ap-|pa- ru-|it be- ni- gni-|tas & hu- *|ma- ni- tas|Sal- va-|
 F8 D4 F4 | E4 D4 E4 G8 | ^F4 G8 z16 | z16 | z16 | z16 | z16 | z16 | z4 G,4 A,4 G,4 | C8 z4 G,4 | %17
w: to- ris De-|* * i no-|* stri,||||||Sed se- cun-|dum su|
 A,4 G,4 C2 D2 E2 F2 | G8 E8 x4 | C8 z4 F4 | F4 F4 D4 F8 | E4 D8 C4 x2 | E8 E4 E16 x2 | F4 E4 D8 | %24
w: |* am|* mi-|se- ri- cor- di-|am sal- *|* vos nos|fe- * *|
 B,16 x4 | C4 B,4 C8 x4 | z16 | z16 | z16 | z16 | z16 | z16 | z16 | z16 x4 | z4 C4 D4 C4 x12 | %35
w: |* * cit,|||||||||quem ef- fun-|
 F8 z4 D4 | D4 D4 E4 D4 | G8 E8 | z4 E4 F4 E4 | A8 F4 F4 | F4 F4 D8 | E4 C4 D8 | %42
w: dit in|nos o- * pu-|len- ter,|per Je- sum|Chri- stum sal-|va- to- rem|no * *|
 C2 D2 E2 F2 G6 E2 | F4 D4 E4 D6 | C2 C8 B,4 C8 | E8 E8 x4 | E6 F2 G4 A4 x4 | G8 E8 x2 | G8 F8 x4 | %49
w: ||* * * strum|hae- re-|des fi * mus,|hæ- re-|des si-|
 D8 G16 | G8 z8 | z8 z4 D4 x8 | F4 E4 D8 | C4 E8 E4 | F4 E4 F12 | E4 D8"^Ù" x16- | x16 x12 | %57
w: |mus,|se-|cun- dum spem|* vi- tæ|æ- ter- *|* * næ||
 D8 F8 x12 | G16 | E6 D2 C4 A,4 | B,8 A,8 | D8 G,8 | D4 C4 D8 | B,8 E12 | C4 F8 F2 E2 | %65
w: in *|Chri-|sto * Je- *|su Do|* mi-|no * *|no- *||
 D2 C2 B,4 C4 D16 | x16 x8 | x24 |] x16 |] %69
w: ||||
V:3
"^;""^C" x2"^ã" | z16 x4 | z16 | z16 | z16 |[M:4/2][K:treble-8] z16 | z16 | z16 | z16 x4 | %9
w: |||||||||
 z8 G8 x12 | G4 G4 c6 c2 | A8 z4 d4 | B4 B4 G8 | z4 G4 A4 c4 | B4 A4 G4 A4 | B2 G2 c8 B4 | c8 z8 | %17
w: Non|ex o- pe- ri-|bus, ju-|sti- ci- æ|quæ fe- ci|||mus|
 z4 G4 A4 G4 | c6 d2 e4 c4 x4 | d8 c8 | A16 x4 | z16 x2 | z16 x14 | z4 c4 c4 c4 | A8 c12 | %25
w: sed se- cun-|dum * * *|su- *|am|||sal- vos nos|fe- *|
 B4 A8 G8 | z4 G4 A4 G4 | c8 z4 A4 | A4 A4 x8 | B4 A4 d8 | B4 B4 B4 B4 | c4 B4 e8 | c8 z4 c4 | %33
w: * * cit|per la- va-|vrum re-|ge- ne-|ra- ti- o-|nis & re- no-|va- ti- o-|nis Spi-|
 c4 c4 A4 d8 | c8 B4 c16 | z16 | z16 | z16 | z16 | z16 | z16 | z16 | z8 G8 | A8 G4 c4- x2 | %44
w: ri- tus * *|* San- cti||||||||ut|ju- sti- fi-|
 c4 B4 A8 x6 | G8 z8 x4 | g8 g8 x4 | g16 x2 | e4 f4 d8 x4 | c8 c8 x8 | A8 B8 | G8 c8 x8 | %52
w: * * ca-|ti|gra- ti-|a|i- * psi-|us hæ-|re- *|des si-|
 B8 z4 G4 | A4 c4 B8 | z8 z4 G4 x4 | A4 c6 B2 G4 x12 | A4 B4 c12 x8 | B4 A8 G16 | g16 | g8 c8 | %60
w: mus, se-|cun- dum spem|vi-|tæ æ- * ter||* * næ,|In|Chri- sto|
 d16 | c16 | z8 c8 | B8 c8 x4 | A4 G4 A8 | G8 c12 x8 | A12 d8 x4 | G8 ^F16 |] x16 |] %69
w: Je-|su,|Do-|mi- no|no- * stro,|no- *||||
V:4
"^;""^F" x2"^ã" | z16 x4 | z16 | z16 | z16 |[M:4/2] z16 | z16 | z16 | z16 x4 | z16 x12 | %10
w: ||||||||||
 C,8 C,4 C,4 | F,6 F,2 D,8 | z4 G,4 E,4 E,4 | C,8 z4 C,4 | D,4 F,4 E,4 D,4 | G,4 C,4 D,8 | C,16 | %17
w: Non ex o-|pe- ri- bus,|ju- sti- ti-|æ quæ|fe * * *|* ci- mus||
 C,16 | C,8 C,8 x4 | G,8 C,8 | F,16 x4 | z16 x2 | z16 x14 | z8 z4 C4 | C4 C4 A,6 G,2 x4 | %25
w: sed|se- cun-|dum su-|am|||sal-|va nos fe- *|
 F,4 G,4 D,8 x4 | G,16 | z8 z4 C,4 | D,4 C,4 F,8 | z4 D,4 D,4 D,4 | E,4 D,4 G,8 | E,4 E,4 E,4 E,4 | %32
w: |cit|per|la- va- crum|re- ge- ne-|ra- ti- o-|nis & re- no-|
 F,4 E,4 A,8 | F,4 F,4 F,4 F,4 x4 | D,2 F,2 E,4 D,8 x12 | C,16 | z16 | z16 | z16 | z16 | z16 | %41
w: va- ti- o-|nis Spi- ri- tus|San * * *|cti||||||
 z16 | z16 | z16 x2 | z8 C,8 x6 | D,8 C,4 F,8 | E,4 D,8 C,8 | C8 C8 x2 | C8 C4 F,4 x4 | %49
w: |||ut|ju- sti- fi-|ca- * ti|gra- ti-|a i- psi-|
 G,8 C,8 x8 | C,8 D,8 | G,8 C,16 | G,8 z4 E,4 | D,4 C,4 G,8 | z16 x4 | z8 z4 C,4 x12 | %56
w: us hæ-|re- des|si- *|mus se-|cun- dum spem||vi-|
 F,4 G,4 F,12 x8 | G,4 D,8 G,16 | G,16 | G,8 A,8 | G,16 | C,8 F,8 | E,8 F,8 | D,8 C,8 x4 | %64
w: tæ æ- ter|næ in Chri-|sto|Je- su|Do-|mi- no||* no-|
 D,4 E,4 D,8 | E,8 C,12 x8 | F,12 D,8 x4 | E,8 D,16 |] x16 |] %69
w: |||||

